images/icons/profile.svg

<svg width="48" height="48" viewBox="0 0 48 48" fill="none" xmlns="http://www.w3.org/2000/svg">
<path d="M24 23.95C21.8 23.95 20 23.25 18.6 21.85C17.2 20.45 16.5 18.65 16.5 16.45C16.5 14.25 17.2 12.45 18.6 11.05C20 9.64995 21.8 8.94995 24 8.94995C26.2 8.94995 28 9.64995 29.4 11.05C30.8 12.45 31.5 14.25 31.5 16.45C31.5 18.65 30.8 20.45 29.4 21.85C28 23.25 26.2 23.95 24 23.95ZM8 40V35.2999C8 34.0333 8.31667 32.9499 8.95 32.0499C9.58333 31.15 10.4 30.4666 11.4 30C13.6333 29 15.775 28.25 17.825 27.75C19.875 27.25 21.9333 27 24 27C26.0667 27 28.1167 27.2583 30.15 27.775C32.1833 28.2916 34.3167 29.0333 36.55 30C37.5833 30.4666 38.4167 31.15 39.05 32.0499C39.6833 32.9499 40 34.0333 40 35.2999V40H8Z" fill="#CDCDCD"/>
</svg>

<svg xmlns="http://www.w3.org/2000/svg" height="48" width="48"><path d="M24 23.95q-3.3 0-5.4-2.1-2.1-2.1-2.1-5.4 0-3.3 2.1-5.4 2.1-2.1 5.4-2.1 3.3 0 5.4 2.1 2.1 2.1 2.1 5.4 0 3.3-2.1 5.4-2.1 2.1-5.4 2.1ZM8 40v-4.7q0-1.9.95-3.25T11.4 30q3.35-1.5 6.425-2.25Q20.9 27 24 27q3.1 0 6.15.775 3.05.775 6.4 2.225 1.55.7 2.5 2.05.95 1.35.95 3.25V40Z"/></svg>
